images/logo/logo-header-768.svg

<svg width="199" height="41" viewBox="0 0 199 41" fill="none" xmlns="http://www.w3.org/2000/svg">
<g clip-path="url(#clip0_1_1082)">
<path d="M49 34H0L24.5 8L49 34ZM13.3075 21.1309L16.6442 24.6702L19.981 21.1309L16.6442 17.5812L13.3075 21.1309ZM16.6442 33.0052L19.981 29.466L16.6442 25.9162L13.3075 29.466L16.6442 33.0052ZM32.4083 33.0052L35.745 29.466L32.4083 25.9162L29.019 29.466L32.4083 33.0052ZM28.4673 13.4031C28.4473 13.4376 28.4207 13.4694 28.3885 13.4974C27.3507 14.6178 26.2997 15.7382 25.2357 16.8482C25.1437 16.9424 25.2357 17.0052 25.2357 17.089L28.3097 20.356L28.4542 20.4921L31.7909 16.9634L28.4673 13.4031ZM8.78847 33.0052L8.91984 32.8691L11.9938 29.6126C12.0428 29.5717 12.0702 29.5173 12.0702 29.4607C12.0702 29.4042 12.0428 29.3498 11.9938 29.3089C11.0611 28.3456 10.1547 27.3613 9.23512 26.3874L8.78847 25.9162L5.45174 29.466L8.78847 33.0052ZM17.2354 16.9529L20.5721 20.4921L20.6772 20.3979L23.8169 17.0681C23.922 16.9529 23.8169 16.89 23.8169 16.8063L20.7429 13.5602L20.6115 13.4241L17.2354 16.9529ZM17.2354 25.3298L20.5721 28.8691L20.7429 28.7016C21.7413 27.6545 22.7528 26.6073 23.7643 25.4869C23.7926 25.4663 23.8152 25.4412 23.8307 25.4133C23.8461 25.3853 23.8541 25.3551 23.8541 25.3246C23.8541 25.2941 23.8461 25.2639 23.8307 25.2359C23.8152 25.208 23.7926 25.1829 23.7643 25.1623C22.8185 24.1675 21.8727 23.1728 20.9399 22.1675L20.5721 21.7906L17.2354 25.3298ZM32.9995 25.3298L36.3362 28.8691L39.6729 25.3298L36.3362 21.7906L32.9995 25.3298ZM28.4673 21.7801V21.8534L25.3013 25.2147C25.1962 25.3089 25.2357 25.3717 25.3013 25.4555L28.244 28.5969C28.3228 28.6911 28.4147 28.7853 28.5198 28.8901L31.8566 25.3508L28.4673 21.7801ZM12.7295 28.8482C12.7453 28.8175 12.7675 28.7892 12.7952 28.7644L15.9611 25.4031C16.0531 25.2984 15.9611 25.2461 15.9611 25.1623L12.8477 21.8953C12.8069 21.8484 12.7583 21.8061 12.7032 21.7696L9.37962 25.2984L12.7295 28.8482ZM32.3558 24.6597L35.6925 21.1204L32.3558 17.5916L29.019 21.1309L32.3558 24.6597ZM24.4737 16.2827L27.8105 12.7435L24.5263 9.27749H24.4606L21.2552 12.712C21.2354 12.7371 21.2249 12.7662 21.2249 12.7958C21.2249 12.8255 21.2354 12.8545 21.2552 12.8796L24.4737 16.2827ZM24.4737 24.6597L27.8105 21.1204L24.5 17.5812L21.1633 21.1309L24.4737 24.6597ZM24.4737 33.0366L27.8105 29.4974L24.4737 25.9476L21.1633 29.466L24.4737 33.0366ZM40.2378 33.0366L43.5745 29.4974L40.2509 25.9791H40.1853L36.9668 29.3613C36.8617 29.4764 36.9668 29.5288 36.9668 29.6021L39.5941 32.4398L40.2378 33.0366ZM1.89169 33.2356H7.88204L4.91314 30.0942L1.89169 33.2356ZM41.1705 33.2356H47.1083L44.1394 30.0942L41.1705 33.2356ZM23.5542 33.2356L20.5721 30.0942L17.5901 33.2356H23.5542ZM33.3147 33.2356H39.2525L36.2836 30.0942L33.3147 33.2356ZM31.3968 33.2356L28.4279 30.0942L25.459 33.2356H31.3968ZM15.6327 33.2356L12.6638 30.0942L9.69491 33.2356H15.6327Z" fill="white"/>
</g>
<path d="M75.26 33.72H75.4C75.5493 33.72 75.68 33.6733 75.792 33.58C75.904 33.468 75.9973 33.3373 76.072 33.188C76.1653 33.0387 76.2307 32.88 76.268 32.712C76.324 32.544 76.352 32.3853 76.352 32.236V17.256C76.352 17.1253 76.324 16.976 76.268 16.808C76.2307 16.64 76.1653 16.4813 76.072 16.332C75.9973 16.1827 75.904 16.0613 75.792 15.968C75.68 15.856 75.5493 15.8 75.4 15.8H75.26V15.52H79.292V15.8H79.152C79.0027 15.8 78.872 15.856 78.76 15.968C78.648 16.0613 78.5547 16.1827 78.48 16.332C78.4053 16.4813 78.34 16.64 78.284 16.808C78.2467 16.976 78.228 17.1253 78.228 17.256V32.964H84.36C84.7147 32.964 85.0227 32.88 85.284 32.712C85.5453 32.544 85.76 32.3387 85.928 32.096C86.1147 31.8347 86.2453 31.564 86.32 31.284C86.4133 30.9853 86.46 30.7147 86.46 30.472H86.74V34H75.26V33.72ZM101.563 15.24C103.019 15.24 104.326 15.5013 105.483 16.024C106.641 16.528 107.621 17.2187 108.423 18.096C109.245 18.9547 109.87 19.9627 110.299 21.12C110.747 22.2587 110.971 23.4533 110.971 24.704C110.971 26.104 110.71 27.392 110.187 28.568C109.683 29.744 108.983 30.752 108.087 31.592C107.191 32.432 106.146 33.0947 104.951 33.58C103.775 34.0467 102.515 34.28 101.171 34.28C99.7339 34.28 98.4365 34.0187 97.2792 33.496C96.1405 32.9733 95.1699 32.2827 94.3672 31.424C93.5832 30.5653 92.9765 29.576 92.5472 28.456C92.1179 27.336 91.9032 26.1693 91.9032 24.956C91.9032 23.7613 92.1179 22.5853 92.5472 21.428C92.9765 20.252 93.6019 19.2067 94.4232 18.292C95.2632 17.3773 96.2805 16.64 97.4752 16.08C98.6699 15.52 100.033 15.24 101.563 15.24ZM101.535 33.3C102.786 33.244 103.878 32.964 104.811 32.46C105.763 31.9373 106.557 31.284 107.191 30.5C107.826 29.6973 108.293 28.82 108.591 27.868C108.909 26.916 109.067 25.9733 109.067 25.04C109.067 24.0133 108.881 22.9773 108.507 21.932C108.134 20.8867 107.602 19.944 106.911 19.104C106.221 18.2453 105.39 17.5547 104.419 17.032C103.467 16.4907 102.394 16.22 101.199 16.22C100.042 16.22 99.0059 16.4813 98.0912 17.004C97.1765 17.508 96.3925 18.1613 95.7392 18.964C95.1045 19.7667 94.6192 20.6627 94.2832 21.652C93.9472 22.6413 93.7792 23.612 93.7792 24.564C93.7792 25.5907 93.9752 26.6267 94.3672 27.672C94.7592 28.6987 95.3005 29.632 95.9912 30.472C96.6819 31.312 97.4939 31.9933 98.4272 32.516C99.3792 33.0387 100.415 33.3 101.535 33.3ZM118.428 15.52H122.404V15.8H122.264C122.115 15.8 121.984 15.856 121.872 15.968C121.76 16.0613 121.657 16.1827 121.564 16.332C121.489 16.4813 121.433 16.64 121.396 16.808C121.359 16.976 121.34 17.1253 121.34 17.256V28.316C121.34 29.044 121.415 29.716 121.564 30.332C121.713 30.948 121.965 31.48 122.32 31.928C122.675 32.376 123.141 32.7307 123.72 32.992C124.299 33.2347 125.008 33.356 125.848 33.356C126.781 33.356 127.528 33.2067 128.088 32.908C128.648 32.6093 129.077 32.2267 129.376 31.76C129.675 31.2747 129.871 30.7333 129.964 30.136C130.057 29.5387 130.104 28.9507 130.104 28.372V17.256C130.104 17.1253 130.085 16.976 130.048 16.808C130.011 16.64 129.945 16.4813 129.852 16.332C129.777 16.1827 129.684 16.0613 129.572 15.968C129.46 15.856 129.339 15.8 129.208 15.8H129.068V15.52H132.12V15.8H131.98C131.831 15.8 131.7 15.856 131.588 15.968C131.495 16.0613 131.401 16.1827 131.308 16.332C131.233 16.4813 131.177 16.64 131.14 16.808C131.103 16.976 131.084 17.1253 131.084 17.256V28.288C131.084 29.5013 130.935 30.5 130.636 31.284C130.337 32.0493 129.927 32.656 129.404 33.104C128.881 33.552 128.265 33.86 127.556 34.028C126.865 34.196 126.128 34.28 125.344 34.28C124.504 34.28 123.72 34.1867 122.992 34C122.283 33.832 121.667 33.524 121.144 33.076C120.621 32.628 120.211 32.0213 119.912 31.256C119.613 30.472 119.464 29.492 119.464 28.316V17.256C119.464 17.1253 119.445 16.976 119.408 16.808C119.371 16.64 119.305 16.4813 119.212 16.332C119.137 16.1827 119.044 16.0613 118.932 15.968C118.82 15.856 118.699 15.8 118.568 15.8H118.428V15.52ZM142.076 16.5C142.076 16.612 142.104 16.752 142.16 16.92L147.088 30.192L152.016 16.78C152.034 16.7427 152.053 16.6867 152.072 16.612C152.09 16.5373 152.1 16.4813 152.1 16.444C152.1 16.22 152.006 16.0613 151.82 15.968C151.652 15.856 151.493 15.8 151.344 15.8V15.52H154.396V15.8C154.116 15.8 153.854 15.8747 153.612 16.024C153.388 16.1733 153.21 16.4253 153.08 16.78L146.668 34.336L140.116 16.864C140.004 16.584 139.836 16.3413 139.612 16.136C139.406 15.9307 139.145 15.8187 138.828 15.8V15.52H142.804V15.8C142.636 15.8 142.468 15.8653 142.3 15.996C142.15 16.108 142.076 16.276 142.076 16.5ZM165.076 33.72H165.216V34H161.268V33.72H161.408C161.538 33.72 161.66 33.664 161.772 33.552C161.884 33.44 161.977 33.3093 162.052 33.16C162.145 33.0107 162.21 32.852 162.248 32.684C162.285 32.4973 162.304 32.3293 162.304 32.18V17.256C162.304 17.1253 162.285 16.976 162.248 16.808C162.21 16.64 162.145 16.4813 162.052 16.332C161.977 16.1827 161.884 16.0613 161.772 15.968C161.66 15.856 161.538 15.8 161.408 15.8H161.268V15.52H166.14C168.006 15.52 169.444 15.884 170.452 16.612C171.478 17.34 171.992 18.4133 171.992 19.832C171.992 20.5413 171.87 21.1667 171.628 21.708C171.404 22.2307 171.096 22.688 170.704 23.08C170.312 23.4533 169.845 23.7613 169.304 24.004C168.781 24.228 168.221 24.396 167.624 24.508L169.64 27.588C170.125 28.3347 170.62 29.072 171.124 29.8C171.628 30.5093 172.122 31.2467 172.608 32.012C172.738 32.1987 172.878 32.3947 173.028 32.6C173.196 32.8053 173.364 32.992 173.532 33.16C173.718 33.328 173.905 33.468 174.092 33.58C174.297 33.6733 174.502 33.72 174.708 33.72V34H173.504C172.757 34 172.141 33.8227 171.656 33.468C171.189 33.0947 170.797 32.6653 170.48 32.18C169.64 30.948 168.8 29.6973 167.96 28.428C167.138 27.1587 166.317 25.908 165.496 24.676C165.29 24.6573 165.066 24.6387 164.824 24.62C164.6 24.5827 164.385 24.5453 164.18 24.508V32.18C164.18 32.3293 164.198 32.4973 164.236 32.684C164.273 32.852 164.329 33.0107 164.404 33.16C164.497 33.3093 164.59 33.44 164.684 33.552C164.796 33.664 164.926 33.72 165.076 33.72ZM164.18 16.472V23.584H164.32C164.469 23.6027 164.702 23.6213 165.02 23.64C165.356 23.64 165.766 23.64 166.252 23.64C166.644 23.64 167.054 23.584 167.484 23.472C167.932 23.3413 168.342 23.136 168.716 22.856C169.108 22.5573 169.425 22.1747 169.668 21.708C169.929 21.2413 170.06 20.6533 170.06 19.944C170.06 19.2347 169.92 18.656 169.64 18.208C169.378 17.76 169.005 17.4053 168.52 17.144C168.053 16.8827 167.484 16.7053 166.812 16.612C166.14 16.5187 165.402 16.472 164.6 16.472H164.18ZM181.389 33.72H181.529C181.678 33.72 181.809 33.6733 181.921 33.58C182.033 33.468 182.126 33.3373 182.201 33.188C182.294 33.0387 182.36 32.88 182.397 32.712C182.453 32.544 182.481 32.3853 182.481 32.236V17.256C182.481 17.1253 182.453 16.976 182.397 16.808C182.36 16.64 182.294 16.4813 182.201 16.332C182.126 16.1827 182.033 16.0613 181.921 15.968C181.809 15.856 181.678 15.8 181.529 15.8H181.389V15.52H192.169V18.124H191.889C191.852 17.6947 191.684 17.3213 191.385 17.004C191.086 16.668 190.62 16.5 189.985 16.5H184.357V23.584H189.005C189.434 23.584 189.789 23.4533 190.069 23.192C190.368 22.9307 190.517 22.6227 190.517 22.268H190.797V25.768H190.517C190.517 25.432 190.377 25.1427 190.097 24.9C189.817 24.6573 189.453 24.536 189.005 24.536H184.357V33.02H190.489C190.844 33.02 191.152 32.936 191.413 32.768C191.674 32.6 191.889 32.404 192.057 32.18C192.244 31.9373 192.374 31.6853 192.449 31.424C192.542 31.144 192.589 30.9107 192.589 30.724H192.869V34H181.389V33.72Z" fill="white"/>
<defs>
<clipPath id="clip0_1_1082">
<rect width="49" height="26" fill="white" transform="translate(0 8)"/>
</clipPath>
</defs>
</svg>

<svg xmlns="http://www.w3.org/2000/svg" width="199" height="41" fill="none"><g clip-path="url(#a)"><path fill="#fff" d="M49 34H0L24.5 8zM13.308 21.13l3.336 3.54 3.337-3.54-3.337-3.549zm3.336 11.875 3.337-3.539-3.337-3.55-3.336 3.55zm15.764 0 3.337-3.539-3.337-3.55-3.389 3.55zm-3.94-19.602a.4.4 0 0 1-.08.094 269 269 0 0 1-3.152 3.351c-.092.094 0 .157 0 .241l3.074 3.267.144.136 3.337-3.529zM8.787 33.005l.132-.136 3.074-3.256a.2.2 0 0 0 .076-.152.2.2 0 0 0-.076-.152c-.933-.963-1.84-1.948-2.759-2.922l-.447-.47-3.336 3.549zm8.447-16.052 3.337 3.54.105-.095 3.14-3.33c.105-.115 0-.178 0-.262l-3.074-3.246-.131-.136zm0 8.377 3.337 3.54.17-.168c1-1.048 2.01-2.095 3.022-3.215a.2.2 0 0 0 .067-.074.2.2 0 0 0 .023-.088q0-.046-.023-.09a.2.2 0 0 0-.067-.073c-.945-.994-1.891-1.99-2.824-2.994l-.368-.377zm15.764 0 3.337 3.54 3.337-3.54-3.337-3.54zm-4.532-3.55v.073l-3.166 3.362c-.105.094-.065.157 0 .24l2.943 3.142c.079.094.17.188.276.293l3.337-3.54zM12.73 28.848a.3.3 0 0 1 .065-.084l3.166-3.36c.092-.106 0-.158 0-.242l-3.113-3.267a.7.7 0 0 0-.145-.125L9.38 25.298zm19.626-4.188 3.337-3.54-3.337-3.528-3.337 3.539zm-7.882-8.377 3.337-3.54-3.285-3.466h-.065l-3.206 3.435a.14.14 0 0 0-.03.084q0 .046.03.084zm0 8.377 3.337-3.54-3.311-3.539-3.337 3.55zm0 8.377 3.337-3.54-3.337-3.55-3.31 3.519zm15.764 0 3.337-3.54-3.324-3.518h-.066l-3.218 3.382c-.105.115 0 .168 0 .241l2.627 2.838zm-38.346.199h5.99l-2.969-3.142zm39.278 0h5.938l-2.969-3.142zm-17.616 0-2.982-3.142-2.982 3.142zm9.76 0h5.938l-2.968-3.142zm-1.917 0-2.97-3.142-2.968 3.142zm-15.764 0-2.97-3.142-2.968 3.142z"/></g><path fill="#fff" d="M75.26 33.72h.14q.225 0 .392-.14.168-.168.28-.392a1.5 1.5 0 0 0 .196-.476q.084-.252.084-.476v-14.98q0-.196-.084-.448a1.5 1.5 0 0 0-.196-.476 1.1 1.1 0 0 0-.28-.364.54.54 0 0 0-.392-.168h-.14v-.28h4.032v.28h-.14q-.225 0-.392.168a1.1 1.1 0 0 0-.28.364q-.112.224-.196.476a2 2 0 0 0-.056.448v15.708h6.132q.532 0 .924-.252t.644-.616q.28-.392.392-.812.14-.449.14-.812h.28V34H75.26zm26.303-18.48q2.184 0 3.92.784 1.737.756 2.94 2.072a8.7 8.7 0 0 1 1.876 3.024 9.7 9.7 0 0 1 .672 3.584q0 2.1-.784 3.864a8.9 8.9 0 0 1-2.1 3.024 10.1 10.1 0 0 1-3.136 1.988q-1.764.7-3.78.7-2.156 0-3.892-.784a9.2 9.2 0 0 1-2.912-2.072 9.3 9.3 0 0 1-1.82-2.968 9.7 9.7 0 0 1-.644-3.5q0-1.792.644-3.528a9.6 9.6 0 0 1 1.876-3.136q1.26-1.372 3.052-2.212t4.088-.84m-.028 18.06q1.877-.084 3.276-.84 1.428-.784 2.38-1.96a8.1 8.1 0 0 0 1.4-2.632 8.9 8.9 0 0 0 .476-2.828 9.2 9.2 0 0 0-.56-3.108 9.4 9.4 0 0 0-1.596-2.828 8.1 8.1 0 0 0-2.492-2.072q-1.428-.812-3.22-.812-1.736 0-3.108.784a8 8 0 0 0-2.352 1.96 8.9 8.9 0 0 0-1.456 2.688 9 9 0 0 0-.504 2.912q0 1.54.588 3.108a10 10 0 0 0 1.624 2.8 8.5 8.5 0 0 0 2.436 2.044 6.35 6.35 0 0 0 3.108.784m16.893-17.78h3.976v.28h-.14a.54.54 0 0 0-.392.168 1.5 1.5 0 0 0-.308.364q-.112.224-.168.476a2 2 0 0 0-.056.448v11.06q0 1.092.224 2.016t.756 1.596 1.4 1.064q.868.364 2.128.364 1.4 0 2.24-.448t1.288-1.148a4.3 4.3 0 0 0 .588-1.624q.14-.895.14-1.764V17.256q0-.196-.056-.448a1.5 1.5 0 0 0-.196-.476 1.1 1.1 0 0 0-.28-.364.5.5 0 0 0-.364-.168h-.14v-.28h3.052v.28h-.14a.54.54 0 0 0-.392.168 2 2 0 0 0-.28.364q-.113.224-.168.476a2 2 0 0 0-.056.448v11.032q0 1.82-.448 2.996-.448 1.148-1.232 1.82a4.3 4.3 0 0 1-1.848.924 9.3 9.3 0 0 1-2.212.252q-1.26 0-2.352-.28a4.3 4.3 0 0 1-1.848-.924q-.784-.672-1.232-1.82-.448-1.176-.448-2.94v-11.06q0-.196-.056-.448a1.5 1.5 0 0 0-.196-.476 1.1 1.1 0 0 0-.28-.364.5.5 0 0 0-.364-.168h-.14zm23.648.98q0 .168.084.42l4.928 13.272 4.928-13.412a1 1 0 0 0 .056-.168 1 1 0 0 0 .028-.168q0-.336-.28-.476a.87.87 0 0 0-.476-.168v-.28h3.052v.28q-.42 0-.784.224-.336.224-.532.756l-6.412 17.556-6.552-17.472a2 2 0 0 0-.504-.728 1.17 1.17 0 0 0-.784-.336v-.28h3.976v.28a.82.82 0 0 0-.504.196q-.224.168-.224.504m23 17.22h.14V34h-3.948v-.28h.14a.5.5 0 0 0 .364-.168q.168-.168.28-.392.14-.224.196-.476.056-.28.056-.504V17.256q0-.196-.056-.448a1.5 1.5 0 0 0-.196-.476 1.1 1.1 0 0 0-.28-.364.5.5 0 0 0-.364-.168h-.14v-.28h4.872q2.8 0 4.312 1.092 1.54 1.092 1.54 3.22 0 1.065-.364 1.876-.336.784-.924 1.372a5 5 0 0 1-1.4.924 8 8 0 0 1-1.68.504l2.016 3.08q.728 1.12 1.484 2.212.756 1.065 1.484 2.212.195.28.42.588.252.308.504.56.28.252.56.42.307.14.616.14V34h-1.204q-1.12 0-1.848-.532a5.5 5.5 0 0 1-1.176-1.288q-1.26-1.848-2.52-3.752-1.233-1.904-2.464-3.752a51 51 0 0 0-.672-.056 44 44 0 0 1-.644-.112v7.672q0 .224.056.504.055.252.168.476.14.224.28.392a.54.54 0 0 0 .392.168m-.896-17.248v7.112h.14q.223.028.7.056h1.232q.587 0 1.232-.168.672-.195 1.232-.616.588-.448.952-1.148.392-.7.392-1.764t-.42-1.736a2.8 2.8 0 0 0-1.12-1.064q-.7-.392-1.708-.532t-2.212-.14zm17.209 17.248h.14q.224 0 .392-.14.168-.168.28-.392a1.5 1.5 0 0 0 .196-.476q.084-.252.084-.476v-14.98q0-.196-.084-.448a1.5 1.5 0 0 0-.196-.476 1.1 1.1 0 0 0-.28-.364.54.54 0 0 0-.392-.168h-.14v-.28h10.78v2.604h-.28a1.82 1.82 0 0 0-.504-1.12q-.448-.504-1.4-.504h-5.628v7.084h4.648q.644 0 1.064-.392.448-.392.448-.924h.28v3.5h-.28q0-.504-.42-.868t-1.092-.364h-4.648v8.484h6.132q.532 0 .924-.252t.644-.588q.28-.364.392-.756.14-.42.14-.7h.28V34h-11.48z"/><defs><clipPath id="a"><path fill="#fff" d="M0 8h49v26H0z"/></clipPath></defs></svg>
